src/icons/error-tracking.svg

<svg width="28" height="28" viewBox="0 0 28 28" fill="none" xmlns="http://www.w3.org/2000/svg">
<path fill-rule="evenodd" clip-rule="evenodd" d="M14.8535 1C14.8535 0.447715 14.4058 0 13.8535 0C13.3012 0 12.8535 0.447715 12.8535 1V2.03662C6.99328 2.4924 2.31326 7.14961 1.82855 12.9961H1.00098C0.448153 12.9961 0 13.4438 0 13.9961C0 14.5484 0.448153 14.9961 1.00098 14.9961H1.82791C2.31229 20.8852 7.05316 25.5694 12.9707 25.9719V27C12.9707 27.5523 13.4184 28 13.9707 28C14.523 28 14.9707 27.5523 14.9707 27V25.9436C20.7259 25.3869 25.2928 20.7728 25.7695 15H26.9971C27.5499 15 27.9981 14.5523 27.9981 14C27.9981 13.4477 27.5499 13 26.9971 13H25.7695C25.2895 7.1881 20.6638 2.55057 14.8535 2.04562V1ZM5.00489 14.9961H3.83811C4.31163 19.7798 8.15942 23.5726 12.9707 23.9663V23C12.9707 22.4477 13.4184 22 13.9707 22C14.523 22 14.9707 22.4477 14.9707 23V23.9322C19.6192 23.3907 23.2953 19.6674 23.7592 15H22.9932C22.4403 15 21.9922 14.5523 21.9922 14C21.9922 13.4477 22.4403 13 22.9932 13H23.7592C23.2914 8.29348 19.5573 4.54692 14.8535 4.05485V5C14.8535 5.55228 14.4058 6 13.8535 6C13.3012 6 12.8535 5.55228 12.8535 5V4.04401C8.09967 4.48888 4.31194 8.255 3.83888 12.9961H5.00489C5.55771 12.9961 6.00587 13.4438 6.00587 13.9961C6.00587 14.5484 5.55771 14.9961 5.00489 14.9961ZM11.7969 14C11.7969 12.8954 12.6932 12 13.7988 12C14.9045 12 15.8008 12.8954 15.8008 14C15.8008 15.1046 14.9045 16 13.7988 16C12.6932 16 11.7969 15.1046 11.7969 14ZM13.7988 10C11.5875 10 9.79493 11.7909 9.79493 14C9.79493 16.2091 11.5875 18 13.7988 18C16.0101 18 17.8027 16.2091 17.8027 14C17.8027 11.7909 16.0101 10 13.7988 10Z" fill="#4F5162"/>
</svg>

<svg viewBox="0 0 28 28" xmlns="http://www.w3.org/2000/svg"><path fill-rule="evenodd" clip-rule="evenodd" d="M14.854 1a1 1 0 10-2 0v1.037c-5.86.455-10.54 5.113-11.025 10.96H1a1 1 0 100 2h.827c.484 5.888 5.225 10.572 11.143 10.975V27a1 1 0 102 0v-1.056C20.726 25.387 25.293 20.773 25.77 15h1.227a1 1 0 100-2H25.77c-.48-5.812-5.106-10.45-10.916-10.954V1zm-9.85 13.996H3.839c.474 4.784 4.321 8.577 9.133 8.97V23a1 1 0 112 0v.932c4.648-.541 8.324-4.265 8.788-8.932h-.766a1 1 0 110-2h.766c-.468-4.707-4.202-8.453-8.905-8.945V5a1 1 0 11-2 0v-.956c-4.754.445-8.542 4.211-9.015 8.952h1.166a1 1 0 110 2zM11.798 14a2.001 2.001 0 114.006.002A2.001 2.001 0 0111.797 14zm2.002-4a4.002 4.002 0 00-4.004 4c0 2.21 1.793 4 4.004 4a4.002 4.002 0 004.004-4c0-2.21-1.793-4-4.004-4z" fill="#4F5162"/></svg>
